icons/ShoppingBasket.svg

<svg width="24" height="24" viewBox="0 0 24 24" fill="none" xmlns="http://www.w3.org/2000/svg">
<path fill-rule="evenodd" clip-rule="evenodd" d="M14.6279,3.34795c0.3597,-0.20549 0.8178,-0.08051 1.0233,0.27914l3.7839,6.62291h1.0649h1.5c0.4142,0 0.75,0.3358 0.75,0.75c0,0.4142 -0.3358,0.75 -0.75,0.75h-0.8287l-0.7282,6.5537c-0.1548,1.3926 -1.332,2.4463 -2.7332,2.4463h-11.41985c-1.40126,0 -2.57843,-1.0537 -2.73318,-2.4463l-0.72818,-6.5537h-0.82872c-0.41421,0 -0.75,-0.3358 -0.75,-0.75c0,-0.4142 0.33579,-0.75 0.75,-0.75h1.5h1.06458l3.78424,-6.62246c0.20551,-0.35964 0.66365,-0.48459 1.02329,-0.27908c0.35964,0.20551 0.48459,0.66365 0.27908,1.02329l-3.35898,5.87825h11.41542l-3.3588,-5.87878c-0.2055,-0.35965 -0.0805,-0.81779 0.2791,-1.02327zM19.0216,11.75c-0.014,0.0004 -0.0279,0.0004 -0.0419,0h-3.3084l-0.3334,3h3.9908l0.3333,-3zM8.66202,14.75l-0.33334,-3h-3.99076l0.33334,3zM8.82869,16.25h-3.99077l0.20978,1.888c0.07034,0.633 0.60542,1.112 1.24235,1.112h2.87197zM13.3287,19.25l0.3333,-3h-3.3241l0.3333,3zM13.8287,14.75l0.3333,-3h-4.32409l0.33339,3zM15.1713,16.25l-0.3334,3h2.872c0.6369,0 1.172,-0.479 1.2423,-1.112l0.2098,-1.888z" fill="#002B51"/>
</svg>

<svg width="24" height="24" viewBox="0 0 24 24" fill="none" xmlns="http://www.w3.org/2000/svg">
<path fill-rule="evenodd" clip-rule="evenodd" d="M14.6279 3.34795C14.9876 3.14246 15.4457 3.26744 15.6512 3.62709L19.4351 10.25H20.5H22C22.4142 10.25 22.75 10.5858 22.75 11C22.75 11.4142 22.4142 11.75 22 11.75H21.1713L20.4431 18.3037C20.2883 19.6963 19.1111 20.75 17.7099 20.75H6.29005C4.88879 20.75 3.71162 19.6963 3.55687 18.3037L2.82869 11.75H1.99997C1.58576 11.75 1.24997 11.4142 1.24997 11C1.24997 10.5858 1.58576 10.25 1.99997 10.25H3.49997H4.56455L8.34879 3.62754C8.5543 3.2679 9.01244 3.14295 9.37208 3.34846C9.73172 3.55397 9.85667 4.01211 9.65116 4.37175L6.29218 10.25H17.7076L14.3488 4.37122C14.1433 4.01157 14.2683 3.55343 14.6279 3.34795ZM19.0216 11.75C19.0076 11.7504 18.9937 11.7504 18.9797 11.75H15.6713L15.3379 14.75H19.3287L19.662 11.75H19.0216ZM4.67126 14.75L4.33792 11.75H8.32868L8.66202 14.75H4.67126ZM8.82869 16.25H4.83792L5.0477 18.138C5.11804 18.771 5.65312 19.25 6.29005 19.25H9.16202L8.82869 16.25ZM10.6712 19.25L10.3379 16.25H13.662L13.3287 19.25H10.6712ZM10.1713 14.75L9.83791 11.75H14.162L13.8287 14.75H10.1713ZM15.1713 16.25L14.8379 19.25H17.7099C18.3468 19.25 18.8819 18.771 18.9522 18.138L19.162 16.25H15.1713Z" fill="#002B51"/>
</svg>
